X:1
T:Title
%%score { ( 1 3 ) | ( 2 4 ) }
L:1/8
M:2/4
K:F
V:1 treble nm="Grand Piano"
V:3 treble 
V:2 bass 
V:4 bass 
V:1
 z2 z[Q:1/4=84] F | AA GF | cc cA | c4 | c4 | dc/c/ cA | cc AF | [FA]3 [EG] |[M:3/8] F3 | %9
[M:1/8] F |[M:2/4] A4 | c4 | c>d cA | [EG]F FF | A4 | c4 |[M:9/16] A3- A/ z/ z/ |[M:3/8] F3 |] %18
V:2
 z2 z [F,A,C] | [F,CF][F,CF] [F,B,F][F,A,] | [F,A,F][F,A,F] .[F,A,F]2 | z [F,A,] .[F,A,]2 | %4
 z [F,A,] [F,A,][K:treble][F,A,F] | [F,B,F]F/F/ [F,A,F][K:bass][F,CF] | %6
 [F,A,F][F,A,F] [F,CF][F,A,C] | [C,C]3 [C,B,] |[M:3/8] [F,A,]3 |[M:1/8] z | %10
[M:2/4] z [F,C] .[F,C]2 | z [F,A,] [F,A,][F,CF] | [F,A,F]>[F,B,F] [F,A,F][F,CF] | %13
 [C,B,][F,A,] .[F,A,]2 | z [F,C] .[F,C]2 | z [F,A,] .[F,A,]2 | %16
[M:9/16] z [C,C]/-[C,C]/[C,C]-[C,C]/[C,B,] |[M:3/8] [F,A,]3 |] %18
V:3
 x4 | x4 | x4 | z F FA | z F Fc | x4 | x4 | x4 |[M:3/8] x3 |[M:1/8] x |[M:2/4] z F FF | z F FA | %12
 x4 | x4 | z F FF | z F FF |[M:9/16] z F/-F/F-F/[EG] |[M:3/8] x3 |] %18
V:4
 x4 | x4 | x4 | x4 | x3[K:treble] x | z [F,A,] z2[K:bass] | x4 | x4 |[M:3/8] x3 |[M:1/8] x | %10
[M:2/4] x4 | x4 | x4 | x4 | x4 | x4 |[M:9/16] x9/2 |[M:3/8] x3 |] %18

